packages/ffe-icons/icons/open/400/sm/subtitles.svg

<svg xmlns="http://www.w3.org/2000/svg" height="20" viewBox="0 -960 960 960" width="20"><path d="M168-192q-29.7 0-50.85-21.16Q96-234.32 96-264.04v-432.24Q96-726 117.15-747T168-768h624q29.7 0 50.85 21.16Q864-725.68 864-695.96v432.24Q864-234 842.85-213T792-192H168Zm0-72h624v-432H168v432Zm0 0v-432 432Zm108-72h264q15.3 0 25.65-10.29Q576-356.58 576-371.79t-10.35-25.71Q555.3-408 540-408H276q-15.3 0-25.65 10.29Q240-387.42 240-372.21t10.35 25.71Q260.7-336 276-336Zm144-144h264q15.3 0 25.65-10.29Q720-500.58 720-515.79t-10.35-25.71Q699.3-552 684-552H420q-15.3 0-25.65 10.29Q384-531.42 384-516.21t10.35 25.71Q404.7-480 420-480Zm-144.21 0q15.21 0 25.71-10.29t10.5-25.5q0-15.21-10.29-25.71t-25.5-10.5q-15.21 0-25.71 10.29t-10.5 25.5q0 15.21 10.29 25.71t25.5 10.5Zm408 144q15.21 0 25.71-10.29t10.5-25.5q0-15.21-10.29-25.71t-25.5-10.5q-15.21 0-25.71 10.29t-10.5 25.5q0 15.21 10.29 25.71t25.5 10.5Z"/></svg>

<svg xmlns="http://www.w3.org/2000/svg" height="20" viewBox="0 -960 960 960" width="20"><path d="M168-192q-29.7 0-50.85-21.162Q96-234.324 96-264.04v-432.243Q96-726 117.15-747T168-768h624q29.7 0 50.85 21.162Q864-725.676 864-695.96v432.243Q864-234 842.85-213T792-192H168Zm0-72h624v-432H168v432Zm0 0v-432 432Zm108-72h264q15.3 0 25.65-10.289 10.35-10.29 10.35-25.5Q576-387 565.65-397.5 555.3-408 540-408H276q-15.3 0-25.65 10.289-10.35 10.29-10.35 25.5Q240-357 250.35-346.5 260.7-336 276-336Zm144-144h264q15.3 0 25.65-10.289 10.35-10.29 10.35-25.5Q720-531 709.65-541.5 699.3-552 684-552H420q-15.3 0-25.65 10.289-10.35 10.29-10.35 25.5Q384-501 394.35-490.5 404.7-480 420-480Zm-144.211 0Q291-480 301.5-490.289q10.5-10.29 10.5-25.5Q312-531 301.711-541.5q-10.29-10.5-25.5-10.5Q261-552 250.5-541.711q-10.5 10.29-10.5 25.5Q240-501 250.289-490.5q10.29 10.5 25.5 10.5Zm408 144Q699-336 709.5-346.289q10.5-10.29 10.5-25.5Q720-387 709.711-397.5q-10.29-10.5-25.5-10.5Q669-408 658.5-397.711q-10.5 10.29-10.5 25.5Q648-357 658.289-346.5q10.29 10.5 25.5 10.5Z"/></svg>
